X:628
T:Sandyburn Reel
C:Joe Buchanan's Scottish Tome - Page 187.1
I:187 1
Z:Carl Allison
R:Reel
L:1/8
M:4/4
K:A
E2 | "A"A2 EA dcBA | "A"e2 cA a2 A2 | "A"agfe ^decA | "Bm7"B2 E2 "E7"d2 E2 |
"A"A2 EA dcBA | "A"e2 cA "F#m"a2 A2 | "Bm7"agfe "E7"Bcde | "A"c2 "D"A2 "A"A2 :|
e2 | "A"a2 ee c' e | "A"e' e2 a2 e2 | "A"agfe ^dece | "Bm7"B2 e2 "E7"g2 e2 |
"A"a2 ee c' e2 | "A"e' e2 a2 e2 | "Bm7"agfe "E7"Bcde | "A"c2 "D"A2 "A"A2 :|
E2 | "A"A2 EA dcBA | "A"EAce fecA | "E7"EGBd gf e2 | "Bm7"gebe "E7"gedB |
"A"A2 EA dcBA | "A"EAce "F#m"fecA | "Bm7"agfe "E7"Bcde | "A"c2 "D"A2 "A"A2 :|
e2 | "A"agae c'ee'e | "A"agfe c2 A2 | "A"agfe ^dece | "Bm7"Bege "E7"bege |
"A"ceae c'ee'e | "A"agfe c2 "F#m"A2 | "Bm7"agfe Bcde | "A"c2 "D"A2 "A"A2 :|

